src/assets/icons/linkedin.svg

<svg width="32" height="32" viewBox="0 0 32 32" fill="none" xmlns="http://www.w3.org/2000/svg">
<rect opacity="0.2" width="32" height="32" rx="8" fill="#819EB0"/>
<path d="M22 9H9.99687C9.44687 9 9 9.45313 9 10.0094V21.9906C9 22.5469 9.44687 23 9.99687 23H22C22.55 23 23 22.5469 23 21.9906V10.0094C23 9.45313 22.55 9 22 9ZM13.2312 21H11.1562V14.3187H13.2344V21H13.2312ZM12.1937 13.4062C11.5281 13.4062 10.9906 12.8656 10.9906 12.2031C10.9906 11.5406 11.5281 11 12.1937 11C12.8562 11 13.3969 11.5406 13.3969 12.2031C13.3969 12.8687 12.8594 13.4062 12.1937 13.4062V13.4062ZM21.0094 21H18.9344V17.75C18.9344 16.975 18.9187 15.9781 17.8562 15.9781C16.775 15.9781 16.6094 16.8219 16.6094 17.6938V21H14.5344V14.3187H16.525V15.2312H16.5531C16.8312 14.7062 17.5094 14.1531 18.5188 14.1531C20.6188 14.1531 21.0094 15.5375 21.0094 17.3375V21V21Z" fill="white"/>
</svg>

<svg width="32" height="32" fill="none" xmlns="http://www.w3.org/2000/svg"><rect opacity=".2" width="32" height="32" rx="8" fill="#819EB0"/><path d="M22 9H9.997C9.447 9 9 9.453 9 10.01v11.98c0 .557.447 1.01.997 1.01H22c.55 0 1-.453 1-1.01V10.01C23 9.452 22.55 9 22 9zm-8.769 12h-2.075v-6.681h2.078V21h-.003zm-1.037-7.594a1.204 1.204 0 1 1 0-2.407 1.204 1.204 0 0 1 0 2.407zM21.009 21h-2.075v-3.25c0-.775-.015-1.772-1.078-1.772-1.081 0-1.247.844-1.247 1.716V21h-2.075v-6.681h1.991v.912h.028c.278-.525.956-1.078 1.966-1.078 2.1 0 2.49 1.384 2.49 3.184V21z" fill="#fff"/></svg>
